X: 1
T: Ondas do mar de Vigo
F:https://en.wikipedia.org/wiki/Martin_Codax
F:https://es.wikisource.org/wiki/Archivo:Martim_Codax_Cantigas_de_Amigo.jpg
Z:Ali Corbin <ali.corbin:gmail.com>
N: 
M: 3/4
L: 1/4
Q: 1/4=120
K: G Mixolydian
V:1
%Staff 1
%%MIDI program 74
%
 (G/A/) c2|(B/c/dc)|(cBA)|c3|(B/c/dc/B/|ABA)|(AG2)|
w:On-* das  do***   mar** de  vi-*** *  ***   go*
   A  c2|(B/c/dc)|(cBA)|c3|(B/c/dc|d/c/B/A/B/A/)|(A G2)|
w:se vis- tes***  meu** a-  mi-*** * * * *  * *   go.*
 (G/A/) (B/A/A/G/)|(GF2)|(G/A/) c2|(B/c/)(dc)|(d/c/c/B/A|B2A)|(AG2)||
w:E*     ay***     Deus*  se*  ver- ra*   **   ce-** * * * *   do.*
%
W:Ondas do mar de Vigo		% Waves of.the sea of Vigo,
W:se vistes meu amigo?		% saw.you my friend?
W:E ay Deus se verra cedo. 	% And, ay God, if I could see him soon.
W:
W:Ondas do mar levado 		% Waves of.the sea arisen,
W:se vistes meu amado? 		% saw.you my beloved?
W:E ay Deus se verra cedo. 	% And, ay God, if I could see him soon.
W:
W:Se vistes meu amigo 		% Saw.you my friend,
W:o porque eu sospiro?		% him for whom I sigh?
W:E ay Deus se verra cedo. 	% And, ay God, if I could see him soon.
W:
W:Se vistes meu amado 		% Saw.you my beloved,
W:porque ei gran coidado?	% for whom I.have great care?
W:E ay deus se verra cedo.	% And, ay God, if I could see him soon.


